src/images/svg/footer-logo.svg

<svg width="32" height="32" viewBox="0 0 32 32" fill="none" xmlns="http://www.w3.org/2000/svg">
<rect width="32" height="32" rx="6" fill="#EBF3D4"/>
<path d="M7 7.08398V11.546V11.636V11.546C7 12.8201 7.55588 13.9481 8.41776 14.6781C8.83918 15.0351 9.11765 15.5171 9.11765 16.0521V23.5002C9.11765 24.3282 9.82918 25.0002 10.7059 25.0002C11.5826 25.0002 12.2941 24.3282 12.2941 23.5002V16.0521C12.2941 15.5171 12.5726 15.0351 12.994 14.6781C13.8559 13.9481 14.4118 12.8201 14.4118 11.546V7.08398V11.546" stroke="#8BAA36" stroke-width="1.8" stroke-linecap="round" stroke-linejoin="round"/>
<path d="M10.7051 12.0001V7" stroke="#8BAA36" stroke-width="1.8" stroke-linecap="round" stroke-linejoin="round"/>
<path d="M24.9992 8.05153C24.9992 7.49952 24.5248 7.05151 23.9404 7.05151H22.8815C21.1271 7.05151 19.7051 8.39453 19.7051 10.0515V16.0516C19.7051 17.3556 20.5913 18.4546 21.8227 18.8677V23.4997C21.8227 24.3277 22.5343 24.9997 23.411 24.9997C24.2877 24.9997 24.9992 24.3277 24.9992 23.4997V19.0517V8.05153Z" stroke="#8BAA36" stroke-width="1.8" stroke-linecap="round" stroke-linejoin="round"/>
</svg>

<svg width="32" height="32" fill="none" xmlns="http://www.w3.org/2000/svg"><rect width="32" height="32" rx="6" fill="#EBF3D4"/><path d="M7 7.084v4.552-.09c0 1.274.556 2.402 1.418 3.132.421.357.7.84.7 1.374V23.5c0 .828.711 1.5 1.588 1.5.877 0 1.588-.672 1.588-1.5v-7.448c0-.535.279-1.017.7-1.374.862-.73 1.418-1.858 1.418-3.132V7.084v4.462M10.705 12V7M25 8.052c0-.552-.475-1-1.06-1h-1.059c-1.754 0-3.176 1.343-3.176 3v6c0 1.304.886 2.403 2.118 2.816V23.5c0 .828.711 1.5 1.588 1.5.877 0 1.588-.672 1.588-1.5V8.052z" stroke="#8BAA36" stroke-width="1.8" stroke-linecap="round" stroke-linejoin="round"/></svg>
